X:81
T:An Buachaill\'in Donn
T:The Brown-Haired Boy
B:Joyce, P. W.; "Old Irish Folk Music and Songs"
R:song air
M:3/4
K:C
L:1/4
G|fec|ec/A/G|cEG/A/|cec/A/|AGG|G2:|G/A/|
cce|g e/d/c|eGG/A/|cce|ge/d/c|
d2d/e/|gg/e/d|ce/d/c|cEG|fed/c/|AGG|G2||


